X: 311
T:De tous biens plaine
N: Derived from Jos2706-De_tous_biens_plaine.krn
C: Josquin des Prez
%%abc-version 2.0
%%abcx-abcm2ps-target-version 5.9.1 (29 Sep 2008)
%%abc-creator hum2abc beta
%%abcx-conversion-date 2019/02/12 16:15:54
%%abc-edited-by Jesse Rodin
%%abc-edited-by Jesse Rodin; Victoria Chang 2011/05/30
%%abcx-initial-encoding-date 2011/05/30/
%%humdrum-veritas 311303992
%%humdrum-veritas-data 3052128270
%%linebreak <none>
%%barnumbers 0
L: 1/4
M: 2/1
Q: 1/2=120
V: 1 clef=treble
V: 2 clef=treble-8
V: 3 clef=bass
K: F
[V:1] G8 | 
[V:2] z4d4- | 
[V:3] G,8 | 
[V:1] G6FE | 
[V:2] d4d4 | 
[V:3] G,4G,4 | 
[V:1] D4G4- | 
[V:2] d4d4- | 
[V:3] G,6F,E, | 
[V:1] G4^F4 | 
[V:2] d2cBA4 | 
[V:3] D,4z4 | 
[V:1] G4G4 | 
[V:2] z4d4- | 
[V:3] G,6A,2 | 
[V:1] G4A4 | 
[V:2] d2e2f4 | 
[V:3] B,4z4 | 
[V:1] B2A2F4 | 
[V:2] z4d4 | 
[V:3] G,4z4 | 
[V:1] G4F4- | 
[V:2] z4d4 | 
[V:3] G,4D,2F,2- | 
[V:1] F4G2F2 | 
[V:2] A2c6 | 
[V:3] F,4C,3D, | 
[V:1] E4D4- | 
[V:2] G3AB3c | 
[V:3] E,3F,G,2B,2- | 
[V:1] D4F2G2 | 
[V:2] d2f4ed | 
[V:3] B,2A,G,F,4 | 
[V:1] A4B4- | 
[V:2] c4z4 | 
[V:3] z4G,4- | 
[V:1] B2A2G4- | 
[V:2] d6c2 | 
[V:3] G,2F,2G,2E,2 | 
[V:1] G4^F4 | 
[V:2] d2B2c2d2 | 
[V:3] F,2G,2A,4 | 
[V:1] G8 | 
[V:2] _e4d4- | 
[V:3] G,8 | 
[V:1] z4G4 | 
[V:2] d4d4- | 
[V:3] G,6B,2- | 
[V:1] B4B4 | 
[V:2] d2f6 | 
[V:3] B,4B,3A, | 
[V:1] A4A4 | 
[V:2] f3ec3d | 
[V:3] F,3G,A,B,C2- | 
[V:1] G4G4 | 
[V:2] efg4fe | 
[V:3] C2B,A,G,4 | 
[V:1] A6GF | 
[V:2] d4z2c2- | 
[V:3] z2F,4E,D, | 
[V:1] E8 | 
[V:2] c2BAG4- | 
[V:3] C,6G,2- | 
[V:1] D2F4ED | 
[V:2] G2d4cB | 
[V:3] G,2F,E,D,4 | 
[V:1] C4D4 | 
[V:2] A4z4 | 
[V:3] z4D,4 | 
[V:1] E8 | 
[V:2] A4G2E2 | 
[V:3] C,2A,,2C,3D, | 
[V:1] C4F4 | 
[V:2] G3AB4 | 
[V:3] _E,4z2B,,2 | 
[V:1] E2D2D4- | 
[V:2] z2F2G2A2 | 
[V:3] C,2D,2G,,2D,2- | 
[V:1] D4C4 | 
[V:2] D2A4E2 | 
[V:3] D,2A,,2C,3B,, | 
[V:1] D8 | 
[V:2] G3FD3E | 
[V:3] G,,3A,,B,,3C, | 
[V:1] z4F2G2 | 
[V:2] F3GA4- | 
[V:3] D,6E,2 | 
[V:1] A6GF | 
[V:2] A2B2c4 | 
[V:3] F,4z2C,2- | 
[V:1] E4D4- | 
[V:2] z2G3ABc | 
[V:3] C,D,E,F,G,4 | 
[V:1] D4G4- | 
[V:2] d4z2D2- | 
[V:3] z2G,,3A,,B,,C, | 
[V:1] G2^F2F2E2 | 
[V:2] DEFGA4 | 
[V:3] D,4z4 | 
[V:1] G6FE | 
[V:2] z4d3e | 
[V:3] G,3A,B,CD2- | 
[V:1] D4C4- | 
[V:2] fga4A2 | 
[V:3] D2D,2F,4- | 
[V:1] C4F4 | 
[V:2] c6c2 | 
[V:3] F,2F,2F,4 | 
[V:1] E4D4- | 
[V:2] c4z2G2 | 
[V:3] z2C,2B,,2G,,2 | 
[V:1] D4^C4 | 
[V:2] F2D2A4 | 
[V:3] D,4z4 | 
[V:1] D6CB, | 
[V:2] z4A4- | 
[V:3] D,6F,2- | 
[V:1] A,8 | 
[V:2] A2c3def | 
[V:3] F,G,A,B,C4 | 
[V:1] G,8 | 
[V:2] g4z2G2- | 
[V:3] z2C,6 | 
[V:1] z4G,4 | 
[V:2] G4B3c | 
[V:3] E,3F,G,4- | 
[V:1] B,2C2D4 | 
[V:2] d6cB | 
[V:3] G,2F,E,D,4 | 
[V:1] C4F4 | 
[V:2] A4z2c2- | 
[V:3] z2F,4E,D, | 
[V:1] E2D2D4- | 
[V:2] c2BAG2d2- | 
[V:3] C,2G,4F,E, | 
[V:1] D4^C4 | 
[V:2] d2cBA4 | 
[V:3] D,4z4 | 
[V:1] D8 | 
[V:2] z4A4 | 
[V:3] D,4F,4 | 
[V:1] z4D4 | 
[V:2] c4B3c | 
[V:3] E,3F,G,3F, | 
[V:1] F2G2A4- | 
[V:2] d3cA3B | 
[V:3] D,3E,F,3G, | 
[V:1] A4c2A2 | 
[V:2] c3de4 | 
[V:3] A,4z2C2 | 
[V:1] B6AG | 
[V:2] z2g2f2d2 | 
[V:3] B,2G,2D,4 | 
[V:1] F4G4 | 
[V:2] A4z2e2 | 
[V:3] z2A,2B,2G,2 | 
[V:1] A4F4 | 
[V:2] f2d2A4 | 
[V:3] D,4z4 | 
[V:1] B2A2G4 | 
[V:2] z4d2c2 | 
[V:3] G,2F,2G,2E,2 | 
[V:1] F8 | 
[V:2] d2B2A4 | 
[V:3] D,4z4 | 
[V:1] B4A4 | 
[V:2] z4d4 | 
[V:3] G,4z4 | 
[V:1] B4c2B2 | 
[V:2] z4z2d2 | 
[V:3] z2G,2F,2G,2 | 
[V:1] A2G2G4- | 
[V:2] c2d2G2d2- | 
[V:3] C,2G,4F,E, | 
[V:1] G4^F4 | 
[V:2] d2cBA4 | 
[V:3] D,4z4 | 
[V:1] G8 |]  
[V:2] z4d4 |]  
[V:3] G,8 |]  



